!!!SOCIAL_FUNCTION:	songs of the sun dance
!!!PDT:	1918

Specific Region: Dakotas, Minnesota, Montana, Nebraska
!!!REG: Dakotas and Montana
!!!LING_GROUP: Siouan
!!!LANG: Tone
!!!OTL@ENG: Opening Song of the Sun Dance (b)
!!!ONM: No. 20
**kern
*Imale
*clefF4
*k[b-]
*M2/4
*MM80
4f
16f
8.d
=2
2d
=3
16f
8.d
16d
8.A
=4
2A
=5
4e
16e
8.d
=6
2d
=7
16e
8.d
16d
16A
8A
=8
16d
16A
8A
24A
24G
24A
24G
12G
=9||
*M3/4
16G
16D
8D
4.D
8E
=10||
*M2/4
16E
16D
8D
[4D
=11
16D]
16AA
16D
16D
16E
16D
8C
=12
16E
16D
8D
16D
16AA
8AA
=13
8AA
8AA
8AA
8AA
==
*-
!!!CNT: Native American -- Sioux
!!!MRD: 1911/07//-1914///
!!!OCL: Frances Densmore
!!!YOR1: Teton Sioux Music, Bulletin 61,
!!!YOR2: Bureau of American Ethnology, Smithsonian Institution
!!!PPR: Government Printing Office
!!!PPP: Washington, D.C.
!!!PDT: 1918///
!!!ENC: Craig Stuart Sapp
!!!END: 2002/03/25/
!!!EEV: 2002/03/31/
!!!AGN: Ceremonial Song/Song of the Sun Dance
!!!MPN@@SIO: Ishn'la-wicha'
!!!MPN@ENG: Lone Man
!!!TXO: Teton Sioux
!!!MLC: Standing Rock Reservation, South Dakota, United States of America
!!!ARL: 45.9/-100.7#
!!!catalog: Catalogue No. 479
!!!PPG: 129
!!!EFL: 20/245
!!!VTS: 1928665007
